X:1

T:Who Made Your Britches?

M:C|

L:1/8

R:Reel
S:Ryan’s Mammoth Collection (1883)

Z:AK/Fiddler’s Companion

K:D

dBAF D2 (EF) | GFGA BEEc | dBAF D2(EF) | GBAG FABc | dBAF D2 (EF) |

GFGA BEEc | dBAF D2(EF) | GBAG FD D2 || dcde f2(ec) | dcde fBBc |

dcde f2(ec) | dBAG (FD)D2 | d2de f2ec | d2de fBB2 | fedc d2(dc) | BABc d2(ce) ||

                       

WHO SPILT THE PO? Irish, Polka. Ireland, Sliabh Luachra. A polka that the late Jack Connell, of Lighthouse, Ballydesmond, used to play, according to Donal Hickey (Stone Mad for Music, 1999). The story of the title goes that a man was walking into town to get his usual draught of stout, usually carried home in an earthernware crock, in those days. He had forgotten his jar, but his wife had purchased that day a new chamber pot, a ‘po’, and seeing this as a suitable substitute he had the publican fill the vessel. On the way home, however, ‘the road was rough, the donkey was tough and that’s how I spilt the po.’

                       

WHO TOLD YOU THESE FALSE STORIES. Irish, Air (2/4 time). F Major/Mixolydian. Standard tuning. AB. Source for notated version: “From Mr. R. Fitzgerald” [Stanford/Petrie]. Stanford/Petrie (Complete Collection), 1905; No. 655, pg. 164.

